Newaita-dark/devices/24/phone.svg

<?xml version="1.0" encoding="UTF-8"?>
<svg xmlns="http://www.w3.org/2000/svg" xmlns:xlink="http://www.w3.org/1999/xlink" width="24pt" height="24pt" viewBox="0 0 24 24" version="1.1">
<defs>
<linearGradient id="linear0" gradientUnits="userSpaceOnUse" x1="254" y1="233.5" x2="254" y2="254.666672" gradientTransform="matrix(0.0468795,0,0,0.0468795,-0.0000028613,10.079089)">
<stop offset="0" style="stop-color:rgb(0%,0%,0%);stop-opacity:0.27451;"/>
<stop offset="1" style="stop-color:rgb(0%,0%,0%);stop-opacity:0;"/>
</linearGradient>
<radialGradient id="radial0" gradientUnits="userSpaceOnUse" cx="450.908936" cy="189.579361" fx="450.908936" fy="189.579361" r="21.166656" gradientTransform="matrix(0.000000130628,-0.0585994,-0.105479,-0.0000000761539,36.617281,47.696499)">
<stop offset="0" style="stop-color:rgb(0%,0%,0%);stop-opacity:0.313725;"/>
<stop offset="0.222222" style="stop-color:rgb(0%,0%,0%);stop-opacity:0.27451;"/>
<stop offset="1" style="stop-color:rgb(0%,0%,0%);stop-opacity:0;"/>
</radialGradient>
<radialGradient id="radial1" gradientUnits="userSpaceOnUse" cx="450.908936" cy="189.579361" fx="450.908936" fy="189.579361" r="21.166656" gradientTransform="matrix(-0.000000130628,0.0585994,0.105479,0.0000000761539,-12.802506,-5.645609)">
<stop offset="0" style="stop-color:rgb(0%,0%,0%);stop-opacity:0.313725;"/>
<stop offset="0.222222" style="stop-color:rgb(0%,0%,0%);stop-opacity:0.27451;"/>
<stop offset="1" style="stop-color:rgb(0%,0%,0%);stop-opacity:0;"/>
</radialGradient>
<radialGradient id="radial2" gradientUnits="userSpaceOnUse" cx="450.908936" cy="189.579361" fx="450.908936" fy="189.579361" r="21.166656" gradientTransform="matrix(-0.000000130628,-0.0585994,0.105479,-0.0000000761539,-12.802506,47.696499)">
<stop offset="0" style="stop-color:rgb(0%,0%,0%);stop-opacity:0.313725;"/>
<stop offset="0.222222" style="stop-color:rgb(0%,0%,0%);stop-opacity:0.27451;"/>
<stop offset="1" style="stop-color:rgb(0%,0%,0%);stop-opacity:0;"/>
</radialGradient>
<radialGradient id="radial3" gradientUnits="userSpaceOnUse" cx="450.908936" cy="189.579361" fx="450.908936" fy="189.579361" r="21.166656" gradientTransform="matrix(0.000000130628,0.0585994,-0.105479,0.0000000761539,36.61728,-5.64561)">
<stop offset="0" style="stop-color:rgb(0%,0%,0%);stop-opacity:0.313725;"/>
<stop offset="0.222222" style="stop-color:rgb(0%,0%,0%);stop-opacity:0.27451;"/>
<stop offset="1" style="stop-color:rgb(0%,0%,0%);stop-opacity:0;"/>
</radialGradient>
<linearGradient id="linear1" gradientUnits="userSpaceOnUse" x1="306.916656" y1="-25.791676" x2="305.954559" y2="-141.414581" gradientTransform="matrix(0.0565122,0,0,0.163059,-4.39051,25.231011)">
<stop offset="0" style="stop-color:rgb(38.039216%,38.039216%,38.039216%);stop-opacity:1;"/>
<stop offset="1" style="stop-color:rgb(45.882353%,45.882353%,45.882353%);stop-opacity:1;"/>
</linearGradient>
<linearGradient id="linear2" gradientUnits="userSpaceOnUse" x1="254" y1="170" x2="254" y2="-147.5" gradientTransform="matrix(1,0,0,1,0,0)">
<stop offset="0" style="stop-color:rgb(25.882353%,25.882353%,25.882353%);stop-opacity:1;"/>
<stop offset="1" style="stop-color:rgb(38.039216%,38.039216%,38.039216%);stop-opacity:1;"/>
</linearGradient>
</defs>
<g id="surface1">
<path style=" stroke:none;fill-rule:nonzero;fill:url(#linear0);" d="M 6.945312 21.027344 L 16.867188 21.027344 L 16.867188 22.019531 L 6.945312 22.019531 Z M 6.945312 21.027344 "/>
<path style=" stroke:none;fill-rule:nonzero;fill:url(#radial0);" d="M 16.867188 21.027344 L 18.851562 21.027344 L 18.851562 20.03125 L 16.867188 20.03125 Z M 16.867188 21.027344 "/>
<path style=" stroke:none;fill-rule:nonzero;fill:url(#radial1);" d="M 6.945312 21.027344 L 4.960938 21.027344 L 4.960938 22.019531 L 6.945312 22.019531 Z M 6.945312 21.027344 "/>
<path style=" stroke:none;fill-rule:nonzero;fill:url(#radial2);" d="M 6.945312 21.027344 L 4.960938 21.027344 L 4.960938 20.03125 L 6.945312 20.03125 Z M 6.945312 21.027344 "/>
<path style=" stroke:none;fill-rule:nonzero;fill:url(#radial3);" d="M 16.867188 21.027344 L 18.851562 21.027344 L 18.851562 22.019531 L 16.867188 22.019531 Z M 16.867188 21.027344 "/>
<path style=" stroke:none;fill-rule:nonzero;fill:url(#linear1);" d="M 5.953125 2.171875 L 17.859375 2.171875 C 18.410156 2.171875 18.851562 2.617188 18.851562 3.164062 L 18.851562 20.03125 C 18.851562 20.582031 18.410156 21.027344 17.859375 21.027344 L 5.953125 21.027344 C 5.40625 21.027344 4.960938 20.582031 4.960938 20.03125 L 4.960938 3.164062 C 4.960938 2.617188 5.40625 2.171875 5.953125 2.171875 Z M 5.953125 2.171875 "/>
<path style=" stroke:none;fill-rule:nonzero;fill:rgb(0%,0%,0%);fill-opacity:0.196078;" d="M 5.953125 21.027344 C 5.402344 21.027344 4.960938 20.582031 4.960938 20.03125 L 4.960938 19.910156 C 4.960938 20.457031 5.402344 20.902344 5.953125 20.902344 L 17.859375 20.902344 C 18.410156 20.902344 18.851562 20.457031 18.851562 19.910156 L 18.851562 20.03125 C 18.851562 20.582031 18.410156 21.027344 17.859375 21.027344 Z M 5.953125 21.027344 "/>
<path style=" stroke:none;fill-rule:nonzero;fill:rgb(90.196079%,90.196079%,90.196079%);fill-opacity:0.937255;" d="M 5.953125 2.171875 C 5.402344 2.171875 4.960938 2.613281 4.960938 3.164062 L 4.960938 3.289062 C 4.960938 2.738281 5.402344 2.296875 5.953125 2.296875 L 17.859375 2.296875 C 18.410156 2.296875 18.851562 2.738281 18.851562 3.289062 L 18.851562 3.164062 C 18.851562 2.613281 18.410156 2.171875 17.859375 2.171875 Z M 5.953125 2.171875 "/>
<path style=" stroke:none;fill-rule:nonzero;fill:rgb(12.941177%,12.941177%,12.941177%);fill-opacity:1;" d="M 5.953125 2.101562 C 5.367188 2.101562 4.890625 2.578125 4.890625 3.164062 L 4.890625 20.03125 C 4.890625 20.621094 5.367188 21.097656 5.953125 21.097656 L 17.859375 21.097656 C 18.449219 21.097656 18.921875 20.621094 18.921875 20.03125 L 18.921875 3.164062 C 18.921875 2.578125 18.449219 2.101562 17.859375 2.101562 Z M 5.953125 2.242188 L 17.859375 2.242188 C 18.375 2.242188 18.78125 2.652344 18.78125 3.164062 L 18.78125 20.03125 C 18.78125 20.546875 18.375 20.957031 17.859375 20.957031 L 5.953125 20.957031 C 5.441406 20.957031 5.03125 20.546875 5.03125 20.03125 L 5.03125 3.164062 C 5.03125 2.652344 5.441406 2.242188 5.953125 2.242188 Z M 5.953125 2.242188 "/>
<path style="fill-rule:nonzero;fill:url(#linear2);stroke-width:3;stroke-linecap:round;stroke-linejoin:miter;stroke:rgb(12.941177%,12.941177%,12.941177%);stroke-opacity:1;stroke-miterlimit:4;" d="M 137.570196 -147.506445 L 370.381297 -147.506445 C 376.297399 -147.506445 380.96362 -142.756899 380.96362 -136.924123 L 380.96362 159.380915 C 380.96362 165.297017 376.297399 169.963238 370.381297 169.963238 L 137.570196 169.963238 C 131.73742 169.963238 126.987873 165.297017 126.987873 159.380915 L 126.987873 -136.924123 C 126.987873 -142.756899 131.73742 -147.506445 137.570196 -147.506445 Z M 137.570196 -147.506445 " transform="matrix(0.0468795,0,0,0.0468795,0,10.079087)"/>
<path style="fill-rule:nonzero;fill:rgb(38.039216%,38.039216%,38.039216%);fill-opacity:0.27451;stroke-width:3;stroke-linecap:round;stroke-linejoin:miter;stroke:rgb(12.941177%,12.941177%,12.941177%);stroke-opacity:1;stroke-miterlimit:4;" d="M 211.646455 -163.338267 L 296.305038 -163.338267 C 299.221426 -163.338267 301.637862 -161.005156 301.637862 -158.088768 C 301.637862 -155.17238 299.221426 -152.755944 296.305038 -152.755944 L 211.646455 -152.755944 C 208.730067 -152.755944 206.396957 -155.17238 206.396957 -158.088768 C 206.396957 -161.005156 208.730067 -163.338267 211.646455 -163.338267 Z M 211.646455 -163.338267 " transform="matrix(0.0468795,0,0,0.0468795,0,10.079087)"/>
<path style="fill-rule:nonzero;fill:rgb(38.039216%,38.039216%,38.039216%);fill-opacity:0.27451;stroke-width:3;stroke-linecap:round;stroke-linejoin:miter;stroke:rgb(12.941177%,12.941177%,12.941177%);stroke-opacity:1;stroke-miterlimit:4;" d="M 232.811101 180.545561 L 275.140392 180.545561 C 280.973168 180.545561 285.722715 185.295107 285.722715 191.127883 L 285.722715 212.292529 C 285.722715 218.208631 280.973168 222.958177 275.140392 222.958177 L 232.811101 222.958177 C 226.978325 222.958177 222.228778 218.208631 222.228778 212.292529 L 222.228778 191.127883 C 222.228778 185.295107 226.978325 180.545561 232.811101 180.545561 Z M 232.811101 180.545561 " transform="matrix(0.0468795,0,0,0.0468795,0,10.079087)"/>
</g>
</svg>

<svg xmlns="http://www.w3.org/2000/svg" width="32" height="32" viewBox="0 0 24 24"><defs><linearGradient id="a" gradientUnits="userSpaceOnUse" x1="254" y1="233.5" x2="254" y2="254.667" gradientTransform="matrix(.04688 0 0 .04688 0 10.08)"><stop offset="0" stop-opacity=".275"/><stop offset="1" stop-opacity="0"/></linearGradient><radialGradient id="b" gradientUnits="userSpaceOnUse" cx="450.909" cy="189.579" fx="450.909" fy="189.579" r="21.167" gradientTransform="matrix(0 -.0586 -.10548 0 36.617 47.696)"><stop offset="0" stop-opacity=".314"/><stop offset=".222" stop-opacity=".275"/><stop offset="1" stop-opacity="0"/></radialGradient><radialGradient id="c" gradientUnits="userSpaceOnUse" cx="450.909" cy="189.579" fx="450.909" fy="189.579" r="21.167" gradientTransform="matrix(0 .0586 .10548 0 -12.803 -5.646)"><stop offset="0" stop-opacity=".314"/><stop offset=".222" stop-opacity=".275"/><stop offset="1" stop-opacity="0"/></radialGradient><radialGradient id="d" gradientUnits="userSpaceOnUse" cx="450.909" cy="189.579" fx="450.909" fy="189.579" r="21.167" gradientTransform="matrix(0 -.0586 .10548 0 -12.803 47.696)"><stop offset="0" stop-opacity=".314"/><stop offset=".222" stop-opacity=".275"/><stop offset="1" stop-opacity="0"/></radialGradient><radialGradient id="e" gradientUnits="userSpaceOnUse" cx="450.909" cy="189.579" fx="450.909" fy="189.579" r="21.167" gradientTransform="matrix(0 .0586 -.10548 0 36.617 -5.646)"><stop offset="0" stop-opacity=".314"/><stop offset=".222" stop-opacity=".275"/><stop offset="1" stop-opacity="0"/></radialGradient><linearGradient id="f" gradientUnits="userSpaceOnUse" x1="306.917" y1="-25.792" x2="305.955" y2="-141.415" gradientTransform="matrix(.05651 0 0 .16306 -4.39 25.231)"><stop offset="0" stop-color="#616161"/><stop offset="1" stop-color="#757575"/></linearGradient><linearGradient id="g" gradientUnits="userSpaceOnUse" x1="254" y1="170" x2="254" y2="-147.5"><stop offset="0" stop-color="#424242"/><stop offset="1" stop-color="#616161"/></linearGradient></defs><path d="M6.945 21.027h9.922v.993H6.945zm0 0" fill="url(#a)"/><path d="M16.867 21.027h1.985v-.996h-1.985zm0 0" fill="url(#b)"/><path d="M6.945 21.027H4.961v.993h1.984zm0 0" fill="url(#c)"/><path d="M6.945 21.027H4.961v-.996h1.984zm0 0" fill="url(#d)"/><path d="M16.867 21.027h1.985v.993h-1.985zm0 0" fill="url(#e)"/><path d="M5.953 2.172H17.86c.551 0 .993.445.993.992v16.867c0 .551-.442.996-.993.996H5.953a.994.994 0 0 1-.992-.996V3.164c0-.547.445-.992.992-.992zm0 0" fill="url(#f)"/><path d="M5.953 21.027a.992.992 0 0 1-.992-.996v-.12c0 .546.441.991.992.991H17.86c.551 0 .993-.445.993-.992v.121c0 .551-.442.996-.993.996zm0 0" fill-opacity=".196"/><path d="M5.953 2.172a.989.989 0 0 0-.992.992v.125c0-.55.441-.992.992-.992H17.86c.551 0 .993.441.993.992v-.125a.989.989 0 0 0-.993-.992zm0 0" fill="#e6e6e6" fill-opacity=".937"/><path d="M5.953 2.102c-.586 0-1.062.476-1.062 1.062v16.867c0 .59.476 1.067 1.062 1.067H17.86c.59 0 1.063-.477 1.063-1.067V3.164c0-.586-.473-1.062-1.063-1.062zm0 .14H17.86c.516 0 .922.41.922.922v16.867a.917.917 0 0 1-.922.926H5.953a.92.92 0 0 1-.922-.926V3.164c0-.512.41-.922.922-.922zm0 0" fill="#212121"/><path d="M137.57-147.506h232.811c5.916 0 10.583 4.75 10.583 10.582V159.38c0 5.916-4.667 10.582-10.583 10.582h-232.81a10.544 10.544 0 0 1-10.583-10.582v-296.305c0-5.833 4.75-10.582 10.582-10.582zm0 0" transform="matrix(.04688 0 0 .04688 0 10.08)" fill="url(#g)" stroke-width="3" stroke-linecap="round" stroke="#212121"/><path d="M9.922 2.422h3.969c.136 0 .25.11.25.246 0 .137-.114.25-.25.25H9.92a.248.248 0 0 1 0-.496zm0 0M10.914 18.543h1.984c.274 0 .497.223.497.496v.992c0 .278-.223.5-.497.5h-1.984a.498.498 0 0 1-.496-.5v-.992c0-.273.223-.496.496-.496zm0 0" fill="#616161" fill-opacity=".275" stroke-width=".14064" stroke-linecap="round" stroke="#212121"/></svg>
